X: 125
T:Room For Ramblers
M:C|
L:1/8
Q:1/2=100
K:D
|:D2|"D"F2A2 "G"BcdB|"D"AFED "A"E3 D|"D"F2A2d2 ef|"A"e6 de|
"D"fedB d3 A|"G"BcdF "A"E3 A|"D"F2B2 "E"E2^G2|"A"A6:|
e2|"A"ecBA "Bm"BcdB|"F#"^A4 "Bm"B4|"F#"c2f2 edcB|"Bm"B6d2|
"D"dAGF "G"G3 A|BGdB "A"c2 BA|"D"d2 ef "G"gfed|"D"d4 "A"c3 B|
"D"AFBA "A"GFED|"D"D6|]

